X:33
T: Der Maedchenmoerder (Halewijn - Ulinger)
N: Q3041O
O: Mitteleuropa, Frankreich, Westfrankreich, Surin (Deux Sevres)
N: Melodievariante zu Q0041H: anderes Lied!  Grundton in der
N: zweigestrichenen Oktave.
R: geistlich
M: 2/4
L: 1/16
K: D
B,4B,2=C2 | D4E4D2=C2 | B,4
=C4 | A,4=C3D | E8 |
E6=F2 | E4D4 | =C4E4 | D6C2 | D8

@@@ Tune index: 769
